X: 20541
T: The Lee Rigg
T: The Lea Rigg
%R: air, march; jig
B: James Oswald "The Caledonian Pocket Companion" v.2 p.54
Z: 2019 John Chambers <jc:trillian.mit.edu>
M: C|
L: 1/8
K: A
%%slurgraces 1
%%graceslurs 1
"_Slow"(Tc>B) |\
A2E2 E2F2 | A4 A2c2 | TB3A B2c2 | A2F2 F2(cB) |\
A2E2 E2F2 | A4 A2a2 | Tf4 (af)(ec) | e2A2 A2 :: e2 |\
f3a f2(ec) | e3f (ec)(BA) |
B3c (ec)(Bc) | A2F2 F2(TcB) |\
A2(FE) E2F2 | A3B (cB)(ce) | f4 (af)(ec) | e2A2 A2 :: (cB) |\
{AB}c2 E4 F2 | A2(cA) (eA)(cA) | (Bc)(af) (ec)(Bc) |
A2F2 F2(TcB) |\
A2 {F2}E4 F2 | A2(Bc) (de)(fg) | (af)(af) (ec)(Be) | Tc2A2 A2 :: (fg) |\
a2 (3(Adf) eAce | a2 (3(Adf) eAce | (ag)(fe) (dc)(BA) |
{AB}c2F2 F2(cB) |\
(AF)(FE) E3F | A2(3(ecA) B2(ce) | f2(ef) (af)(ec) | e2A2 A2 :: (Tc>B) |\
A2 (Tf>e) e2TB>A | A2(Tf>e) e3c |
{c}B3c (a/f/e/c/) (B/A/B/c/) | {B}A2F2 F2(Tc>B) |\
A2(TF>E) E2(TB>A) | F2A2 f3g | a3f (af)(ec) | e2A2 A2 :: fg |\
ae(Tfe) ce(Tfe) |
Aefe cefe | (ag)(ag) (fe)(dc) | B2F2 F2(Tc>B) |\
AEAc BEBd | cAce F3A | E2(af) (ec)(Be) | c2A2 A2 :|
|: [M:6/8] "^Giga"c/B/ |\
A2E E2F | A3 ABc | TB2A B2c | AFF F2(c/B/) | A2E E2F | A3 Bce | f2a fec | ecA A2 :|
|: e |\
(f/g/a)g fec | e2f ecA |(TB2A) (B2c) | AFF F2(c/B/) | A2E E2F | A3 Bce | f2a fec | ecA A2 :|


